X:1
T:The Oxen Ploughing
M:4/4
L:1/8
K:F
 C/2C/2| F3/2 F/2 FF Fd c3/2 B/2| AB A3/2 G/2 F2 z F| A3/2 A/2 AA Ac BA|\
 A3/2 G/2 GA G2| AB| cA GFE-D B3/2 B/2| BA GFA-G cc| c3/2 A/2 Bc dc BA|\
 AG G3/2 E/2 F2| Ac| c3/2 B/2 G2 c3/2 B/2 F2| c2 B3/2 G/2 A3/2 A/2 A2|\
 F3/2 F/2 FG AF z2| G3/2 G/2 GA BG| z2| d2 c3/2 B/2 A2 G3/2 F/2| G2 F3/2 E/2F-Ac-A|\
 d2 c3/2 B/2 A2 G3/2 F/2| G2 F3/2 E/2 F3||
